icons/svg/sort-alphabetical.svg

﻿<?xml version="1.0" encoding="utf-8"?>
<!DOCTYPE svg PUBLIC "-//W3C//DTD SVG 1.1//EN" "http://www.w3.org/Graphics/SVG/1.1/DTD/svg11.dtd">
<svg xmlns="http://www.w3.org/2000/svg" xmlns:xlink="http://www.w3.org/1999/xlink" version="1.1" baseProfile="full" width="24" height="24" viewBox="0 0 24.00 24.00" enable-background="new 0 0 24.00 24.00" xml:space="preserve">
	<path fill="#000000" fill-opacity="1" stroke-linejoin="round" d="M 9.25,5L 12.5,1.75L 15.75,5L 9.25,5 Z M 15.75,19L 12.5,22.25L 9.25001,19L 15.75,19 Z M 8.89095,14.3027L 5.99984,14.3027L 5.28081,16.9907L 2.914,16.9907L 5.99984,7.004L 8.99581,7.004L 12.126,16.9907L 9.6699,16.9907L 8.89095,14.3027 Z M 6.3294,12.6787L 8.56139,12.6787L 7.93224,10.5568L 7.66635,9.59229L 7.42293,8.628L 7.39297,8.628L 7.16639,9.60098L 6.92859,10.5818L 6.3294,12.6787 Z M 13.0547,16.9767L 13.0547,15.7437L 17.8003,8.97093L 17.8003,8.91267L 13.4982,8.91267L 13.4982,7.018L 20.7275,7.018L 20.7275,8.34127L 16.0854,15.0235L 16.0854,15.082L 20.8013,15.082L 20.8013,16.9767L 13.0547,16.9767 Z "/>
</svg>

<svg xmlns="http://www.w3.org/2000/svg" version="1.1" baseProfile="full" width="24" height="24" viewBox="0 0 24.00 24.00" xml:space="preserve"><path fill="#000" fill-opacity="1" stroke-linejoin="round" d="M9.25 5l3.25-3.25L15.75 5h-6.5zm6.5 14l-3.25 3.25L9.25 19h6.5zm-6.86-4.697H6l-.72 2.688H2.915L6 7.005h2.996l3.13 9.987H9.67l-.78-2.687zM6.33 12.68h2.23l-.628-2.123-.266-.965-.243-.964h-.03l-.227.973-.237.982-.6 2.097zm6.725 4.297v-1.233L17.8 8.97v-.057h-4.302V7.018h7.23V8.34l-4.643 6.684v.058H20.8v1.895h-7.745z"/></svg>
